libs/ui/packages/crypto-icons/src/svg/FNZ.svg

<svg width="24" height="24" viewBox="0 0 24 24" fill="none" xmlns="http://www.w3.org/2000/svg">
<path d="M18.3099 14.4432H18.3125C18.3125 9.42859 13.0797 5.91278 11.9343 3.4614C11.8235 3.2256 11.6552 3.10303 11.478 3.10303C11.3373 3.10303 11.19 3.18163 11.0624 3.34149C9.49317 5.3092 9.29628 7.26235 9.56997 8.91031C9.76939 10.1041 10.2151 11.1392 10.5671 11.9065C10.8928 12.618 10.8784 12.999 10.5931 12.999C10.4158 12.999 10.1344 12.8524 9.76543 12.5474C9.01094 11.9213 8.26546 10.9354 7.7963 10.1627C7.75114 10.088 7.70686 10.013 7.66334 9.93751C7.52645 9.69765 7.35967 9.57912 7.19551 9.57912C7.02201 9.57912 6.85404 9.71371 6.73668 9.98277C6.16464 11.2858 5.97163 13.2721 5.96131 14.5351C5.96023 14.5751 5.9598 14.615 5.96001 14.655C5.96001 18.1415 8.72561 20.9686 12.1376 20.9686C15.5483 20.9686 18.3137 18.1415 18.3137 14.655C18.3137 14.5845 18.3125 14.5138 18.3099 14.4432ZM12.1376 19.1034C9.73697 19.1034 7.78464 17.1077 7.78464 14.655C7.78464 14.6363 7.78334 14.6163 7.78464 14.5951V14.5512C7.78464 14.5018 7.78586 14.4525 7.78718 14.4018V14.3738C7.78718 14.3659 7.78718 14.3579 7.7885 14.3512C7.81068 13.7811 8.16778 13.6238 8.60957 13.9916C8.61211 13.9942 8.61473 13.9955 8.61737 13.9982C9.33285 14.5897 9.96101 14.8642 10.5932 14.8642C11.2956 14.8642 11.9355 14.5084 12.3069 13.9129C12.9938 12.8072 12.41 11.5335 12.2183 11.1152C11.8677 10.3491 11.5211 9.51384 11.3687 8.5986C11.3165 8.28415 11.2905 7.97904 11.2905 7.68194C11.2905 7.60876 11.2917 7.53547 11.2956 7.4622C11.2943 7.45814 11.2956 7.4555 11.2956 7.45154C11.298 7.38924 11.3023 7.32705 11.3087 7.26496C11.3087 7.25695 11.3087 7.25035 11.31 7.24233C11.3125 7.213 11.3165 7.18377 11.3203 7.15708C11.4077 6.56563 11.7987 6.46161 12.2157 6.93458C12.2157 6.9359 12.217 6.93722 12.2183 6.93866C12.3629 7.1051 12.5129 7.2743 12.6653 7.44746C14.3492 9.35265 16.2442 11.4963 16.4657 13.9649L16.4866 14.5138C16.4879 14.5604 16.4892 14.6083 16.4892 14.655C16.4892 17.1077 14.5369 19.1034 12.1376 19.1034Z" fill="white"/>
</svg>

<svg xmlns="http://www.w3.org/2000/svg" width="24" height="24" viewBox="0 0 24 24" fill="none"><path fill="#fff" d="M18.31 14.443h.003c0-5.014-5.233-8.53-6.379-10.982-.11-.235-.279-.358-.456-.358-.14 0-.288.079-.416.238C9.493 5.31 9.296 7.262 9.57 8.911c.2 1.193.645 2.228.997 2.996.326.711.311 1.092.026 1.092-.177 0-.459-.147-.828-.452-.754-.626-1.5-1.612-1.969-2.384q-.068-.112-.133-.225c-.137-.24-.303-.359-.467-.359-.174 0-.342.135-.46.404-.571 1.303-.764 3.29-.775 4.552l-.001.12c0 3.487 2.766 6.314 6.178 6.314 3.41 0 6.176-2.828 6.176-6.314q0-.105-.004-.212m-6.172 4.66c-2.401 0-4.353-1.995-4.353-4.448q-.002-.028 0-.06v-.044l.002-.15v-.027q0-.012.002-.023c.022-.57.379-.727.82-.36l.008.007c.716.592 1.344.866 1.976.866.703 0 1.342-.356 1.714-.951.687-1.106.103-2.38-.089-2.798-.35-.766-.697-1.601-.85-2.516a5.6 5.6 0 0 1-.072-1.137q-.002-.005 0-.01.003-.094.013-.187l.001-.023q.004-.044.01-.085c.088-.591.479-.695.896-.222l.002.004.447.508c1.684 1.906 3.58 4.05 3.8 6.518l.022.549.002.141c0 2.453-1.952 4.448-4.351 4.448"/></svg>
